static/img/kroki/5168f45592dcab1d62739df1ea667ece.svg

<?xml version="1.0" encoding="us-ascii" standalone="no"?><svg xmlns="http://www.w3.org/2000/svg" xmlns:xlink="http://www.w3.org/1999/xlink" contentStyleType="text/css" height="645px" preserveAspectRatio="none" style="width:539px;height:645px;" version="1.1" viewBox="0 0 539 645" width="539px" zoomAndPan="magnify"><defs/><g><!--class aws_ec2_route_table--><g id="elem_aws_ec2_route_table"><rect codeLine="23" fill="#3D176E" height="39.7891" id="aws_ec2_route_table" rx="2.5" ry="2.5" style="stroke:#000D19;stroke-width:0.5;" width="218" x="7" y="599.55"/><ellipse cx="22" cy="619.4445" fill="#ADD1B2" rx="11" ry="11" style="stroke:#181818;stroke-width:1.0;"/><path d="M24.9688,625.0852 Q24.3906,625.382 23.75,625.5227 Q23.1094,625.6789 22.4063,625.6789 Q19.9063,625.6789 18.5781,624.0383 Q17.2656,622.382 17.2656,619.257 Q17.2656,616.132 18.5781,614.4758 Q19.9063,612.8195 22.4063,612.8195 Q23.1094,612.8195 23.75,612.9758 Q24.4063,613.132 24.9688,613.4289 L24.9688,616.1477 Q24.3438,615.5695 23.75,615.3039 Q23.1563,615.0227 22.5313,615.0227 Q21.1875,615.0227 20.5,616.1008 Q19.8125,617.1633 19.8125,619.257 Q19.8125,621.3508 20.5,622.4289 Q21.1875,623.4914 22.5313,623.4914 Q23.1563,623.4914 23.75,623.2258 Q24.3438,622.9445 24.9688,622.3664 L24.9688,625.0852 Z " fill="#000000"/><text fill="#D9B8FF" font-family="Helvetica" font-size="17" lengthAdjust="spacing" textLength="176" x="41" y="625.3298">aws_ec2_route_table</text></g><!--class azure_network_route_table--><g id="elem_azure_network_route_table"><rect codeLine="26" fill="#3D176E" height="39.7891" id="azure_network_route_table" rx="2.5" ry="2.5" style="stroke:#000D19;stroke-width:0.5;" width="272" x="260" y="599.55"/><ellipse cx="275" cy="619.4445" fill="#ADD1B2" rx="11" ry="11" style="stroke:#181818;stroke-width:1.0;"/><path d="M277.9688,625.0852 Q277.3906,625.382 276.75,625.5227 Q276.1094,625.6789 275.4063,625.6789 Q272.9063,625.6789 271.5781,624.0383 Q270.2656,622.382 270.2656,619.257 Q270.2656,616.132 271.5781,614.4758 Q272.9063,612.8195 275.4063,612.8195 Q276.1094,612.8195 276.75,612.9758 Q277.4063,613.132 277.9688,613.4289 L277.9688,616.1477 Q277.3438,615.5695 276.75,615.3039 Q276.1563,615.0227 275.5313,615.0227 Q274.1875,615.0227 273.5,616.1008 Q272.8125,617.1633 272.8125,619.257 Q272.8125,621.3508 273.5,622.4289 Q274.1875,623.4914 275.5313,623.4914 Q276.1563,623.4914 276.75,623.2258 Q277.3438,622.9445 277.9688,622.3664 L277.9688,625.0852 Z " fill="#000000"/><text fill="#D9B8FF" font-family="Helvetica" font-size="17" lengthAdjust="spacing" textLength="230" x="294" y="625.3298">azure_network_route_table</text></g><!--class resource--><g id="elem_resource"><rect codeLine="29" fill="#3D176E" height="310.7578" id="resource" rx="2.5" ry="2.5" style="stroke:#000D19;stroke-width:0.5;" width="227" x="142.5" y="7"/><ellipse cx="211.25" cy="26.8945" fill="#ADD1B2" rx="11" ry="11" style="stroke:#181818;stroke-width:1.0;"/><path d="M214.2188,32.5352 Q213.6406,32.832 213,32.9727 Q212.3594,33.1289 211.6563,33.1289 Q209.1563,33.1289 207.8281,31.4883 Q206.5156,29.832 206.5156,26.707 Q206.5156,23.582 207.8281,21.9258 Q209.1563,20.2695 211.6563,20.2695 Q212.3594,20.2695 213,20.4258 Q213.6563,20.582 214.2188,20.8789 L214.2188,23.5977 Q213.5938,23.0195 213,22.7539 Q212.4063,22.4727 211.7813,22.4727 Q210.4375,22.4727 209.75,23.5508 Q209.0625,24.6133 209.0625,26.707 Q209.0625,28.8008 209.75,29.8789 Q210.4375,30.9414 211.7813,30.9414 Q212.4063,30.9414 213,30.6758 Q213.5938,30.3945 214.2188,29.8164 L214.2188,32.5352 Z " fill="#000000"/><text fill="#D9B8FF" font-family="Helvetica" font-size="17" lengthAdjust="spacing" textLength="71" x="236.75" y="32.7798">resource</text><line style="stroke:#000D19;stroke-width:0.5;" x1="143.5" x2="368.5" y1="46.7891" y2="46.7891"/><text fill="#D9B8FF" font-family="sans-serif" font-size="14" font-weight="bold" lengthAdjust="spacing" textLength="29" x="153.5" y="68.7842">age</text><text fill="#D9B8FF" font-family="sans-serif" font-size="14" lengthAdjust="spacing" textLength="66" x="182.5" y="68.7842">: duration</text><text fill="#D9B8FF" font-family="sans-serif" font-size="14" font-weight="bold" lengthAdjust="spacing" textLength="43" x="153.5" y="95.0811">atime</text><text fill="#D9B8FF" font-family="sans-serif" font-size="14" lengthAdjust="spacing" textLength="70" x="196.5" y="95.0811">: datetime</text><text fill="#D9B8FF" font-family="sans-serif" font-size="14" font-weight="bold" lengthAdjust="spacing" textLength="43" x="153.5" y="121.3779">ctime</text><text fill="#D9B8FF" font-family="sans-serif" font-size="14" lengthAdjust="spacing" textLength="70" x="196.5" y="121.3779">: datetime</text><text fill="#D9B8FF" font-family="sans-serif" font-size="14" font-weight="bold" lengthAdjust="spacing" textLength="14" x="153.5" y="147.6748">id</text><text fill="#D9B8FF" font-family="sans-serif" font-size="14" lengthAdjust="spacing" textLength="48" x="167.5" y="147.6748">: string</text><text fill="#D9B8FF" font-family="sans-serif" font-size="14" font-weight="bold" lengthAdjust="spacing" textLength="33" x="153.5" y="173.9717">kind</text><text fill="#D9B8FF" font-family="sans-serif" font-size="14" lengthAdjust="spacing" textLength="48" x="186.5" y="173.9717">: string</text><text fill="#D9B8FF" font-family="sans-serif" font-size="14" font-weight="bold" lengthAdjust="spacing" textLength="90" x="153.5" y="200.2686">last_access</text><text fill="#D9B8FF" font-family="sans-serif" font-size="14" lengthAdjust="spacing" textLength="66" x="243.5" y="200.2686">: duration</text><text fill="#D9B8FF" font-family="sans-serif" font-size="14" font-weight="bold" lengthAdjust="spacing" textLength="90" x="153.5" y="226.5654">last_update</text><text fill="#D9B8FF" font-family="sans-serif" font-size="14" lengthAdjust="spacing" textLength="66" x="243.5" y="226.5654">: duration</text><text fill="#D9B8FF" font-family="sans-serif" font-size="14" font-weight="bold" lengthAdjust="spacing" textLength="48" x="153.5" y="252.8623">mtime</text><text fill="#D9B8FF" font-family="sans-serif" font-size="14" lengthAdjust="spacing" textLength="70" x="201.5" y="252.8623">: datetime</text><text fill="#D9B8FF" font-family="sans-serif" font-size="14" font-weight="bold" lengthAdjust="spacing" textLength="43" x="153.5" y="279.1592">name</text><text fill="#D9B8FF" font-family="sans-serif" font-size="14" lengthAdjust="spacing" textLength="48" x="196.5" y="279.1592">: string</text><text fill="#D9B8FF" font-family="sans-serif" font-size="14" font-weight="bold" lengthAdjust="spacing" textLength="34" x="153.5" y="305.4561">tags</text><text fill="#D9B8FF" font-family="sans-serif" font-size="14" lengthAdjust="spacing" textLength="171" x="187.5" y="305.4561">: dictionary[string, string]</text></g><!--class routing_table--><g id="elem_routing_table"><rect codeLine="41" fill="#3D176E" height="39.7891" id="routing_table" rx="2.5" ry="2.5" style="stroke:#000D19;stroke-width:0.5;" width="154" x="179" y="438.76"/><ellipse cx="194" cy="458.6545" fill="#ADD1B2" rx="11" ry="11" style="stroke:#181818;stroke-width:1.0;"/><path d="M196.9688,464.2952 Q196.3906,464.592 195.75,464.7327 Q195.1094,464.8889 194.4063,464.8889 Q191.9063,464.8889 190.5781,463.2483 Q189.2656,461.592 189.2656,458.467 Q189.2656,455.342 190.5781,453.6858 Q191.9063,452.0295 194.4063,452.0295 Q195.1094,452.0295 195.75,452.1858 Q196.4063,452.342 196.9688,452.6389 L196.9688,455.3577 Q196.3438,454.7795 195.75,454.5139 Q195.1563,454.2327 194.5313,454.2327 Q193.1875,454.2327 192.5,455.3108 Q191.8125,456.3733 191.8125,458.467 Q191.8125,460.5608 192.5,461.6389 Q193.1875,462.7014 194.5313,462.7014 Q195.1563,462.7014 195.75,462.4358 Q196.3438,462.1545 196.9688,461.5764 L196.9688,464.2952 Z " fill="#000000"/><text fill="#D9B8FF" font-family="Helvetica" font-size="17" lengthAdjust="spacing" textLength="112" x="213" y="464.5398">routing_table</text></g><!--reverse link routing_table to aws_ec2_route_table--><g id="link_routing_table_aws_ec2_route_table"><path codeLine="44" d="M227.2056,492.3113 C200.2956,522.8313 159.89,568.66 132.95,599.22 " fill="none" id="routing_table-backto-aws_ec2_route_table" style="stroke:#FFAF37;stroke-width:2.0;"/><polygon fill="none" points="239.11,478.81,222.7052,488.3432,231.7061,496.2795,239.11,478.81" style="stroke:#FFAF37;stroke-width:2.0;"/></g><!--reverse link routing_table to azure_network_route_table--><g id="link_routing_table_azure_network_route_table"><path codeLine="45" d="M284.7944,492.3113 C311.7044,522.8313 352.11,568.66 379.05,599.22 " fill="none" id="routing_table-backto-azure_network_route_table" style="stroke:#FFAF37;stroke-width:2.0;"/><polygon fill="none" points="272.89,478.81,280.2939,496.2795,289.2948,488.3432,272.89,478.81" style="stroke:#FFAF37;stroke-width:2.0;"/></g><!--reverse link resource to routing_table--><g id="link_resource_routing_table"><path codeLine="46" d="M256,335.85 C256,384.14 256,413.37 256,438.68 " fill="none" id="resource-backto-routing_table" style="stroke:#FFAF37;stroke-width:2.0;"/><polygon fill="none" points="256,317.85,250,335.85,262,335.85,256,317.85" style="stroke:#FFAF37;stroke-width:2.0;"/></g><!--SRC=[XP9TJy8m58RlzokQS4Sa0Om2nXiaCNfZZ7fdp79epqR3rfBJCmb-_7TR9pYs0NVj-puz7s-wq0e5vYlUY1ppEPABt5AR5H3aOafarpERMHAT987aV5GtRwtXay03v2ZkC7j7rXBgnCj2owL1vyImOjs0NAPa2wFAyanWdBVGS8MQPU3Sb9dql62i3ACcyt6IrCbwqSwv6emkiO5PKaX_IB_VLuD97JdPwkZUE-9PVw0OL4Dxi8oDCHijVgcZKmQYCcHZqQr_SCP7K4gRL5nKjATo9Z98U_hp0fHT1pg1p5NRE4P2oviLpXfRuMIiab4hV7y8ZcI8Ji3QnIY7iISOOuPvXk8pYhwtzaT161lajQNb8OZGsO9aqBfTIB7RlHAg861jJL1OvwK6ZE7iDTcYQHK4vx-WIVtLBxCl-5uSWvJ-WzSw_3h5AjIgENbB7mEbj2lCa9OLjGpFW3QlfNVsnxpzh-eJy48rWttf-glNwxMbsiuTYZVQPLg2Uu-Z7m00]--></g></svg>

<svg xmlns="http://www.w3.org/2000/svg" width="539" height="645" viewBox="0 0 539 645"><rect width="218" height="39.789" x="7" y="599.55" fill="#3D176E" rx="2.5" ry="2.5" style="stroke:#000d19;stroke-width:.5"/><circle cx="22" cy="619.444" r="11" fill="#ADD1B2" style="stroke:#181818;stroke-width:1"/><path d="M24.969 625.085q-.578.297-1.219.438-.64.156-1.344.156-2.5 0-3.828-1.64-1.312-1.657-1.312-4.782t1.312-4.781q1.328-1.657 3.828-1.657.703 0 1.344.157.656.156 1.219.453v2.719q-.625-.579-1.219-.844-.594-.281-1.219-.281-1.343 0-2.031 1.078-.687 1.062-.687 3.156t.687 3.172q.688 1.062 2.031 1.062.625 0 1.219-.265.594-.282 1.219-.86z"/><text x="41" y="625.33" fill="#D9B8FF" font-family="Helvetica" font-size="17" textLength="176">aws_ec2_route_table</text><rect width="272" height="39.789" x="260" y="599.55" fill="#3D176E" rx="2.5" ry="2.5" style="stroke:#000d19;stroke-width:.5"/><circle cx="275" cy="619.444" r="11" fill="#ADD1B2" style="stroke:#181818;stroke-width:1"/><path d="M277.969 625.085q-.578.297-1.219.438-.64.156-1.344.156-2.5 0-3.828-1.64-1.312-1.657-1.312-4.782t1.312-4.781q1.328-1.657 3.828-1.657.703 0 1.344.157.656.156 1.219.453v2.719q-.625-.579-1.219-.844-.594-.281-1.219-.281-1.344 0-2.031 1.078-.687 1.062-.687 3.156t.687 3.172q.688 1.062 2.031 1.062.625 0 1.219-.265.594-.282 1.219-.86z"/><text x="294" y="625.33" fill="#D9B8FF" font-family="Helvetica" font-size="17" textLength="230">azure_network_route_table</text><rect width="227" height="310.758" x="142.5" y="7" fill="#3D176E" rx="2.5" ry="2.5" style="stroke:#000d19;stroke-width:.5"/><circle cx="211.25" cy="26.895" r="11" fill="#ADD1B2" style="stroke:#181818;stroke-width:1"/><path d="M214.219 32.535q-.578.297-1.219.438-.64.156-1.344.156-2.5 0-3.828-1.64-1.312-1.657-1.312-4.782t1.312-4.781q1.328-1.656 3.828-1.656.703 0 1.344.156.656.156 1.219.453v2.719q-.625-.578-1.219-.844-.594-.281-1.219-.281-1.344 0-2.031 1.078-.687 1.062-.687 3.156t.687 3.172q.688 1.062 2.031 1.062.625 0 1.219-.265.594-.281 1.219-.86z"/><text x="236.75" y="32.78" fill="#D9B8FF" font-family="Helvetica" font-size="17" textLength="71">resource</text><path d="M143.5 46.789h225" style="stroke:#000d19;stroke-width:.5"/><text x="153.5" y="68.784" fill="#D9B8FF" font-family="sans-serif" font-size="14" font-weight="bold" textLength="29">age</text><text x="182.5" y="68.784" fill="#D9B8FF" font-family="sans-serif" font-size="14" textLength="66">: duration</text><text x="153.5" y="95.081" fill="#D9B8FF" font-family="sans-serif" font-size="14" font-weight="bold" textLength="43">atime</text><text x="196.5" y="95.081" fill="#D9B8FF" font-family="sans-serif" font-size="14" textLength="70">: datetime</text><text x="153.5" y="121.378" fill="#D9B8FF" font-family="sans-serif" font-size="14" font-weight="bold" textLength="43">ctime</text><text x="196.5" y="121.378" fill="#D9B8FF" font-family="sans-serif" font-size="14" textLength="70">: datetime</text><text x="153.5" y="147.675" fill="#D9B8FF" font-family="sans-serif" font-size="14" font-weight="bold" textLength="14">id</text><text x="167.5" y="147.675" fill="#D9B8FF" font-family="sans-serif" font-size="14" textLength="48">: string</text><text x="153.5" y="173.972" fill="#D9B8FF" font-family="sans-serif" font-size="14" font-weight="bold" textLength="33">kind</text><text x="186.5" y="173.972" fill="#D9B8FF" font-family="sans-serif" font-size="14" textLength="48">: string</text><text x="153.5" y="200.269" fill="#D9B8FF" font-family="sans-serif" font-size="14" font-weight="bold" textLength="90">last_access</text><text x="243.5" y="200.269" fill="#D9B8FF" font-family="sans-serif" font-size="14" textLength="66">: duration</text><text x="153.5" y="226.565" fill="#D9B8FF" font-family="sans-serif" font-size="14" font-weight="bold" textLength="90">last_update</text><text x="243.5" y="226.565" fill="#D9B8FF" font-family="sans-serif" font-size="14" textLength="66">: duration</text><text x="153.5" y="252.862" fill="#D9B8FF" font-family="sans-serif" font-size="14" font-weight="bold" textLength="48">mtime</text><text x="201.5" y="252.862" fill="#D9B8FF" font-family="sans-serif" font-size="14" textLength="70">: datetime</text><text x="153.5" y="279.159" fill="#D9B8FF" font-family="sans-serif" font-size="14" font-weight="bold" textLength="43">name</text><text x="196.5" y="279.159" fill="#D9B8FF" font-family="sans-serif" font-size="14" textLength="48">: string</text><text x="153.5" y="305.456" fill="#D9B8FF" font-family="sans-serif" font-size="14" font-weight="bold" textLength="34">tags</text><text x="187.5" y="305.456" fill="#D9B8FF" font-family="sans-serif" font-size="14" textLength="171">: dictionary[string, string]</text><rect width="154" height="39.789" x="179" y="438.76" fill="#3D176E" rx="2.5" ry="2.5" style="stroke:#000d19;stroke-width:.5"/><circle cx="194" cy="458.654" r="11" fill="#ADD1B2" style="stroke:#181818;stroke-width:1"/><path d="M196.969 464.295q-.578.297-1.219.438-.64.156-1.344.156-2.5 0-3.828-1.64-1.312-1.657-1.312-4.782t1.312-4.781q1.328-1.656 3.828-1.656.703 0 1.344.156.656.156 1.219.453v2.719q-.625-.579-1.219-.844-.594-.281-1.219-.281-1.344 0-2.031 1.078-.687 1.062-.687 3.156t.687 3.172q.688 1.062 2.031 1.062.625 0 1.219-.265.594-.281 1.219-.86z"/><text x="213" y="464.54" fill="#D9B8FF" font-family="Helvetica" font-size="17" textLength="112">routing_table</text><g fill="none"><path d="M227.206 492.311c-26.91 30.52-67.316 76.349-94.256 106.909" style="stroke:#ffaf37;stroke-width:2"/><path d="m239.11 478.81-16.405 9.533 9.001 7.936z" style="stroke:#ffaf37;stroke-width:2"/></g><g fill="none"><path d="M284.794 492.311c26.91 30.52 67.316 76.349 94.256 106.909" style="stroke:#ffaf37;stroke-width:2"/><path d="m272.89 478.81 7.404 17.47 9-7.937z" style="stroke:#ffaf37;stroke-width:2"/></g><path fill="none" d="M256 335.85v102.83m0-120.83-6 18h12z" style="stroke:#ffaf37;stroke-width:2"/></svg>
